images/example5.svg

<svg width="70" height="70" viewBox="0 0 70 70" fill="none" xmlns="http://www.w3.org/2000/svg">
<path d="M32.4729 4.52551C33.6263 2.51872 36.5215 2.51872 37.6749 4.52551L43.7428 15.083C44.2763 16.0113 44.2747 17.1536 43.7385 18.0804L37.6706 28.5675C36.5153 30.5643 33.6326 30.5643 32.4773 28.5675L26.4094 18.0804C25.8732 17.1536 25.8715 16.0113 26.405 15.083L32.4729 4.52551Z" fill="white"/>
<path d="M32.4729 41.4698C33.6263 39.4631 36.5215 39.4631 37.6749 41.4698L43.7428 52.0274C44.2763 52.9557 44.2747 54.098 43.7385 55.0247L37.6706 65.5119C36.5153 67.5086 33.6326 67.5086 32.4773 65.5119L26.4094 55.0247C25.8732 54.098 25.8715 52.9557 26.405 52.0274L32.4729 41.4698Z" fill="white"/>
<path d="M7.25046 21.8224C6.13211 19.8157 7.53068 17.3447 9.7935 17.3294L21.841 17.2474C22.9312 17.24 23.9434 17.8381 24.4794 18.8065L30.3736 29.4549C31.4824 31.458 30.09 33.918 27.835 33.9401L15.8475 34.0574C14.7573 34.068 13.7435 33.4729 13.2046 32.5061L7.25046 21.8224Z" fill="white"/>
<path d="M27.8013 36.3854C30.0641 36.4008 31.4626 38.8718 30.3443 40.8785L24.3901 51.5622C23.8513 52.529 22.8374 53.1241 21.7472 53.1135L9.75975 52.9962C7.50476 52.9741 6.11238 50.5141 7.22115 48.511L13.1153 37.8626C13.6514 36.8942 14.6635 36.2961 15.7538 36.3035L27.8013 36.3854Z" fill="white"/>
<path d="M42.1987 33.9261C39.9359 33.9107 38.5374 31.4397 39.6557 29.433L45.6099 18.7493C46.1487 17.7825 47.1626 17.1874 48.2528 17.1981L60.2402 17.3153C62.4952 17.3374 63.8876 19.7975 62.7789 21.8005L56.8847 32.4489C56.3486 33.4173 55.3365 34.0154 54.2462 34.008L42.1987 33.9261Z" fill="white"/>
<path d="M62.7495 48.4881C63.8679 50.4948 62.4693 52.9658 60.2065 52.9812L48.159 53.0631C47.0688 53.0705 46.0566 52.4724 45.5206 51.504L39.6264 40.8557C38.5176 38.8526 39.91 36.3925 42.165 36.3704L54.1525 36.2532C55.2427 36.2425 56.2565 36.8376 56.7954 37.8044L62.7495 48.4881Z" fill="white"/>
</svg>

<svg width="70" height="70" fill="none" xmlns="http://www.w3.org/2000/svg"><path d="M32.473 4.526c1.153-2.007 4.049-2.007 5.202 0l6.068 10.557a3 3 0 0 1-.005 2.997l-6.067 10.488c-1.156 1.996-4.038 1.996-5.194 0L26.41 18.08a3 3 0 0 1-.004-2.997l6.068-10.557ZM32.473 41.47c1.153-2.007 4.049-2.007 5.202 0l6.068 10.557a3 3 0 0 1-.005 2.998l-6.067 10.487c-1.156 1.997-4.038 1.997-5.194 0L26.41 55.025a3 3 0 0 1-.004-2.998l6.068-10.557ZM7.25 21.822c-1.118-2.006.28-4.477 2.543-4.493l12.048-.082a3 3 0 0 1 2.638 1.56l5.895 10.648c1.108 2.003-.284 4.463-2.539 4.485l-11.988.117a3 3 0 0 1-2.642-1.55L7.25 21.821ZM27.801 36.385c2.263.016 3.662 2.487 2.543 4.494L24.39 51.562a3 3 0 0 1-2.643 1.552L9.76 52.995c-2.255-.022-3.648-2.482-2.539-4.485l5.894-10.648a3 3 0 0 1 2.639-1.56l12.047.082ZM42.199 33.926c-2.263-.015-3.662-2.486-2.543-4.493l5.954-10.684a3 3 0 0 1 2.643-1.55l11.987.116c2.255.022 3.648 2.482 2.539 4.485L56.885 32.45a3 3 0 0 1-2.639 1.559L42.2 33.926ZM62.75 48.488c1.118 2.007-.28 4.478-2.544 4.493l-12.047.082a3 3 0 0 1-2.638-1.559l-5.895-10.648c-1.108-2.003.284-4.464 2.539-4.486l11.988-.117a3 3 0 0 1 2.642 1.551l5.954 10.684Z" fill="#fff"/></svg>
